packages/icons/src/components/ProductIcon/assets/annotations.svg

<svg width="64" height="64" viewBox="0 0 64 64" fill="none" xmlns="http://www.w3.org/2000/svg">
<path d="M0 16C0 7.16344 7.16344 0 16 0H48C56.8366 0 64 7.16344 64 16V48C64 56.8366 56.8366 64 48 64H16C7.16344 64 0 56.8366 0 48V16Z" fill="#521094" class="fillWeak"/>
<path fill-rule="evenodd" clip-rule="evenodd" d="M48 2H16C8.26801 2 2 8.26801 2 16V48C2 55.732 8.26801 62 16 62H48C55.732 62 62 55.732 62 48V16C62 8.26801 55.732 2 48 2ZM16 0C7.16344 0 0 7.16344 0 16V48C0 56.8366 7.16344 64 16 64H48C56.8366 64 64 56.8366 64 48V16C64 7.16344 56.8366 0 48 0H16Z" fill="#521094" class="fillWeak"/>
<path d="M19 39C16.2386 39 14 41.2386 14 44C14 46.7614 16.2386 49 19 49H25.6689C25.6708 48.8404 25.684 48.6794 25.7119 48.5186C25.8132 47.9359 26.0822 47.4151 26.4619 47H19C17.3431 47 16 45.6569 16 44C16 42.3431 17.3431 41 19 41H31.1143L30.1162 39H19Z" fill="#BF95F9" class="fillStrong"/>
<path fill-rule="evenodd" clip-rule="evenodd" d="M47 25C44.2386 25 42 27.2386 42 30C42 32.7614 44.2386 35 47 35H52C54.7614 35 57 32.7614 57 30C57 27.2386 54.7614 25 52 25H47ZM52 27C53.6569 27 55 28.3431 55 30C55 31.6569 53.6569 33 52 33H47C45.3431 33 44 31.6569 44 30C44 28.3431 45.3431 27 47 27H52Z" fill="#BF95F9" class="fillStrong"/>
<path fill-rule="evenodd" clip-rule="evenodd" d="M20 11C17.2386 11 15 13.2386 15 16C15 18.7614 17.2386 21 20 21H44C46.7614 21 49 18.7614 49 16C49 13.2386 46.7614 11 44 11H20ZM44 13C45.6569 13 47 14.3431 47 16C47 17.6569 45.6569 19 44 19H20C18.3431 19 17 17.6569 17 16C17 14.3431 18.3431 13 20 13H44Z" fill="#BF95F9" class="fillStrong"/>
<path fill-rule="evenodd" clip-rule="evenodd" d="M12 25C9.23858 25 7 27.2386 7 30C7 32.7614 9.23858 35 12 35H28.1191L33.6201 46.0195H28.6699C27.2032 46.0195 25.9604 47.0896 25.7119 48.5186C25.4703 49.9093 26.2298 51.3042 27.5557 51.832L41.9922 57.5801C42.8239 57.911 43.7602 57.8535 44.5449 57.4229L51.5713 53.5654C52.8536 52.8613 53.4413 51.3343 52.9619 49.9521L49.4697 39.8838C48.5762 37.3081 45.7837 35.9236 43.1924 36.7705L40.0977 37.7812C39.7266 37.9025 39.319 37.797 39.0537 37.5107L36.2393 34.4697C37.8761 33.6484 39 31.9561 39 30C39 27.2386 36.7614 25 34 25H12ZM29.874 31.7773C30.2826 31.5054 30.8286 31.5696 31.1621 31.9297L37.5859 38.8691C38.382 39.7289 39.606 40.0467 40.7197 39.6826L43.8135 38.6709C45.3682 38.1629 47.0439 38.9939 47.5801 40.5391L51.0723 50.6074C51.232 51.068 51.0366 51.5777 50.6094 51.8125L43.583 55.6689C43.3214 55.8125 43.0087 55.832 42.7314 55.7217L28.2949 49.9736C27.8629 49.8014 27.5995 49.3349 27.6816 48.8613C27.7663 48.3743 28.1918 48.0195 28.6699 48.0195H33.6201C35.106 48.0193 36.0736 46.4555 35.4102 45.126L29.4209 33.1318C29.1957 32.6808 29.3413 32.1322 29.7607 31.8525L29.874 31.7773ZM34 27C35.6569 27 37 28.3431 37 30C37 31.3866 36.0583 32.5498 34.7803 32.8936L32.6299 30.5713C31.6288 29.49 29.9898 29.296 28.7637 30.1133L28.6514 30.1885C27.6995 30.8231 27.2188 31.9184 27.333 33H12C10.3432 33 9 31.6568 9 30C9 28.3432 10.3432 27 12 27H34Z" fill="white" class="fill"/>
</svg>

<svg xmlns="http://www.w3.org/2000/svg" width="64" height="64" fill="none" viewBox="0 0 64 64">
    <path fill="#521094" d="M0 16C0 7.163 7.163 0 16 0h32c8.837 0 16 7.163 16 16v32c0 8.837-7.163 16-16 16H16C7.163 64 0 56.837 0 48z" class="fillWeak"/>
    <path fill="#521094" fill-rule="evenodd" d="M48 2H16C8.268 2 2 8.268 2 16v32c0 7.732 6.268 14 14 14h32c7.732 0 14-6.268 14-14V16c0-7.732-6.268-14-14-14M16 0C7.163 0 0 7.163 0 16v32c0 8.837 7.163 16 16 16h32c8.837 0 16-7.163 16-16V16c0-8.837-7.163-16-16-16z" class="fillWeak" clip-rule="evenodd"/>
    <path fill="#bf95f9" d="M19 39a5 5 0 0 0 0 10h6.669q.002-.24.043-.481c.101-.583.37-1.104.75-1.519H19a3 3 0 1 1 0-6h12.114l-.998-2z" class="fillStrong"/>
    <path fill="#bf95f9" fill-rule="evenodd" d="M47 25a5 5 0 0 0 0 10h5a5 5 0 0 0 0-10zm5 2a3 3 0 1 1 0 6h-5a3 3 0 1 1 0-6zM20 11a5 5 0 0 0 0 10h24a5 5 0 0 0 0-10zm24 2a3 3 0 1 1 0 6H20a3 3 0 1 1 0-6z" class="fillStrong" clip-rule="evenodd"/>
    <path fill="#fff" fill-rule="evenodd" d="M12 25a5 5 0 0 0 0 10h16.12l5.5 11.02h-4.95a3.014 3.014 0 0 0-2.958 2.499 3.014 3.014 0 0 0 1.844 3.313l14.436 5.748a3 3 0 0 0 2.553-.157l7.026-3.858a3 3 0 0 0 1.39-3.613L49.47 39.884a5 5 0 0 0-6.278-3.114l-3.094 1.011a1 1 0 0 1-1.044-.27l-2.815-3.041A5 5 0 0 0 34 25zm17.874 6.777a1 1 0 0 1 1.288.153l6.424 6.94a3 3 0 0 0 3.134.813l3.093-1.012a3 3 0 0 1 3.767 1.868l3.492 10.068c.16.461-.035.97-.463 1.206l-7.026 3.856a1 1 0 0 1-.852.053l-14.436-5.748a1.015 1.015 0 0 1 .375-1.954h4.95c1.486 0 2.454-1.565 1.79-2.894l-5.99-11.994a1 1 0 0 1 .34-1.28zM34 27a2.998 2.998 0 0 1 .78 5.894l-2.15-2.323a3 3 0 0 0-3.866-.458l-.113.076A3 3 0 0 0 27.333 33H12a3 3 0 0 1 0-6z" class="fill" clip-rule="evenodd"/>
</svg>
